polaris-icons/icons/new-icons/UnknownDeviceMajor.svg

<svg width="20" height="20" viewBox="0 0 20 20" fill="none" xmlns="http://www.w3.org/2000/svg">
<path fill-rule="evenodd" clip-rule="evenodd" d="M10 7.25C9.30964 7.25 8.75 7.80964 8.75 8.5C8.75 8.91421 8.41421 9.25 8 9.25C7.58579 9.25 7.25 8.91421 7.25 8.5C7.25 6.98122 8.48122 5.75 10 5.75C11.5188 5.75 12.75 6.98122 12.75 8.5C12.75 9.66431 12.0267 10.6579 11.0077 11.0593C10.905 11.0997 10.8259 11.1569 10.7816 11.2066C10.7596 11.2312 10.7522 11.2463 10.75 11.2526C10.7486 11.6656 10.4133 12 10 12C9.58579 12 9.25 11.6642 9.25 11.25C9.25 10.3853 9.94646 9.86517 10.4579 9.6637C10.923 9.48047 11.25 9.02751 11.25 8.5C11.25 7.80964 10.6904 7.25 10 7.25ZM10.75 11.2526L10.7492 11.2553C10.7494 11.2548 10.7499 11.2537 10.75 11.2526Z" fill="#4A4A4A"/>
<path d="M10 14.5C10.5523 14.5 11 14.0523 11 13.5C11 12.9477 10.5523 12.5 10 12.5C9.44772 12.5 9 12.9477 9 13.5C9 14.0523 9.44772 14.5 10 14.5Z" fill="#4A4A4A"/>
<path fill-rule="evenodd" clip-rule="evenodd" d="M4 5.75C4 4.23122 5.23122 3 6.75 3H13.25C14.7688 3 16 4.23122 16 5.75V14.25C16 15.7688 14.7688 17 13.25 17H6.75C5.23122 17 4 15.7688 4 14.25V5.75ZM6.75 4.5C6.05964 4.5 5.5 5.05964 5.5 5.75V14.25C5.5 14.9404 6.05964 15.5 6.75 15.5H13.25C13.9404 15.5 14.5 14.9404 14.5 14.25V5.75C14.5 5.05964 13.9404 4.5 13.25 4.5H6.75Z" fill="#4A4A4A"/>
</svg>

<svg viewBox="0 0 20 20" xmlns="http://www.w3.org/2000/svg"><path fill-rule="evenodd" d="M10 7.25c-.69 0-1.25.56-1.25 1.25a.75.75 0 0 1-1.5 0 2.75 2.75 0 1 1 3.758 2.56.61.61 0 0 0-.226.147.154.154 0 0 0-.032.046.75.75 0 0 1-1.5-.003c0-.865.696-1.385 1.208-1.586a1.25 1.25 0 0 0-.458-2.414Zm.75 4.003v.002-.002Z" fill="#5C5F62"/><path d="M10 14.5a1 1 0 1 0 0-2 1 1 0 0 0 0 2Z" fill="#5C5F62"/><path fill-rule="evenodd" d="M4 5.75a2.75 2.75 0 0 1 2.75-2.75h6.5a2.75 2.75 0 0 1 2.75 2.75v8.5a2.75 2.75 0 0 1-2.75 2.75h-6.5a2.75 2.75 0 0 1-2.75-2.75v-8.5Zm2.75-1.25c-.69 0-1.25.56-1.25 1.25v8.5c0 .69.56 1.25 1.25 1.25h6.5c.69 0 1.25-.56 1.25-1.25v-8.5c0-.69-.56-1.25-1.25-1.25h-6.5Z" fill="#5C5F62"/></svg>
